Yaru++/places/symbolic/folder-saved-search-symbolic.svg

<svg height="16" width="16" xmlns="http://www.w3.org/2000/svg">
  <g fill="#808080">
    <path d="m3.994 1c-1.258.015-2.179-.029-2.932.387a1.878 1.878 0 0 0 -.84.996c-.164.438-.222.96-.222 1.617v8c0 .658.058 1.179.223 1.617.164.439.463.79.84.998.526.29 1.188.342 1.937.36l1 .025v-1l-1-.04c-.666-.031-1.204-.084-1.453-.222-.184-.1-.29-.212-.387-.472s-.16-.674-.16-1.266v-8c0-.592.063-1.006.16-1.266.098-.26.203-.371.387-.472.367-.203 1.195-.247 2.459-.262h2.53l2.02 2h3.436c1.264.015 2.092.06 2.46.262.183.1.288.212.386.472s.162.674.162 1.266v6h1v-6c0-.658-.06-1.179-.225-1.617a1.88 1.88 0 0 0 -.837-.998c-.753-.416-1.674-.37-2.932-.385h-3.039l-2.022-2h-2.949z"/>
    <path d="m9 5c-2.755 0-5 2.245-5 5s2.245 5 5 5 5-2.245 5-5-2.245-5-5-5zm0 1.04a3.954 3.954 0 0 1 3.96 3.96 3.954 3.954 0 0 1 -3.96 3.96 3.954 3.954 0 0 1 -3.96-3.96 3.954 3.954 0 0 1 3.96-3.96z"/>
    <path d="m12.354 12.646-.708.708 2.5 2.5.708-.708z" fill-rule="evenodd"/>
  </g>
</svg>

<svg height="16" width="16" xmlns="http://www.w3.org/2000/svg">
    <g color="#000" fill="gray" font-family="sans-serif" font-weight="400" white-space="normal">
        <path d="M3.994 1c-1.258.015-2.179-.029-2.932.387a1.878 1.878 0 0 0-.84.996C.058 2.821 0 3.343 0 4v8c0 .658.058 1.179.223 1.617.164.439.463.79.84.998.526.29 1.188.342 1.937.36L4 15v-1l-1-.04c-.666-.031-1.204-.084-1.453-.222-.184-.1-.29-.212-.387-.472C1.063 13.006 1 12.592 1 12V4c0-.592.063-1.006.16-1.266.098-.26.203-.371.387-.472.367-.203 1.195-.247 2.459-.262h2.53l2.02 2h3.436c1.264.015 2.092.06 2.46.262.183.1.288.212.386.472.098.26.162.674.162 1.266v6h1V6c0-.658-.06-1.179-.225-1.617a1.88 1.88 0 0 0-.837-.998c-.753-.416-1.674-.37-2.932-.385H8.967L6.945 1H3.996z" overflow="visible" style="line-height:normal;font-variant-ligatures:none;font-variant-position:normal;font-variant-caps:normal;font-variant-numeric:normal;font-variant-alternates:normal;font-feature-settings:normal;text-indent:0;text-align:start;text-decoration-line:none;text-decoration-style:solid;text-decoration-color:#000;text-transform:none;shape-padding:0;isolation:auto;mix-blend-mode:normal;marker:none"/>
        <path d="M9 5c-2.755 0-5 2.245-5 5s2.245 5 5 5 5-2.245 5-5-2.245-5-5-5zm0 1.04A3.954 3.954 0 0 1 12.96 10 3.954 3.954 0 0 1 9 13.96 3.954 3.954 0 0 1 5.04 10 3.954 3.954 0 0 1 9 6.04z" overflow="visible" style="line-height:normal;font-variant-ligatures:normal;font-variant-position:normal;font-variant-caps:normal;font-variant-numeric:normal;font-variant-alternates:normal;font-feature-settings:normal;text-indent:0;text-align:start;text-decoration-line:none;text-decoration-style:solid;text-decoration-color:#000;text-transform:none;text-orientation:mixed;shape-padding:0;isolation:auto;mix-blend-mode:normal"/>
        <path d="M12.354 12.646l-.708.708 2.5 2.5.708-.708z" fill-rule="evenodd" overflow="visible" style="line-height:normal;font-variant-ligatures:normal;font-variant-position:normal;font-variant-caps:normal;font-variant-numeric:normal;font-variant-alternates:normal;font-feature-settings:normal;text-indent:0;text-align:start;text-decoration-line:none;text-decoration-style:solid;text-decoration-color:#000;text-transform:none;text-orientation:mixed;shape-padding:0;isolation:auto;mix-blend-mode:normal"/>
    </g>
</svg>
